X:1
T:Standin In The Need of Prayer
T:Getting ready to die
T:Copyright 1881 by The Riverside Press
T:Rodeheaver's Plantation Melodies
Z:Rodeheaver's Plantation Melodies
L:1/8
Q:1/4=100
M:2/2
K:G
V:1 treble nm="Soprano" snm="S."
V:1
 G2 B2 | B2 B4 G2 | E4 G2 B2 | A2 A4 G2 | E4 G2 B2 | B2 B4 G2 | E4 G4 | D2 (E4 B,2) | D2 E4 || E2 | %10
w: Get- ting|read- y to|die. Get- ting|read- y to|die Get- ting|read- y to|die. O|Zi- on- ,|Zi- on|When|
 G2 G2 G2 E2 | G2 G2 G4 | D2 (E4 B,2) | D2 E4 E2 | %14
w: I set out I|was but young,|Zi- on- *|Zi- on. But|
"_2. Religion's like a blooming rose. Zion, Zion.\n    And none but those that feel it knowa. Zion, Zion.\n\n3. The Lord is waiting to receive.  Zion, Zion.\n    If sinners only would believe. Zion, Zion.\n\n4. All those who walk in Gospel shoes. Zion, Zion.\n    This faith in Christ they'll never lose. Zion, Zion." G2 G2 G2 E2 | %15
w: now my race is|
 G2 G2 G4 | D2 (E4 B,2) | D2 E2!D.C.! |] %18
w: al- most run,|Zi- on- *|Zi- on.|

